Newaita-dark/actions/24/media-repeat-track-amarok.svg

<svg height="24" viewBox="0 0 24 24" width="24" xmlns="http://www.w3.org/2000/svg"><g fill="#e0e0e0"><path d="m6.449219 22.019531-3.472657-4.964843h2.480469v-14.386719c0-.273438.222657-.496094.496094-.496094h.992187c.277344 0 .496094.222656.496094.496094v14.386719h2.480469zm0 0"/><path d="m17.363281 2.171875-3.472656 4.960937h2.480469v14.390626c0 .273437.222656.496093.496094.496093h.992187c.277344 0 .496094-.222656.496094-.496093v-14.390626h2.484375zm0 0"/><path d="m9.921875 10.109375c-.273437 0-.496094.222656-.496094.496094 0 .277343.222657.496093.496094.496093h.992187v3.472657c0 .277343.222657.496093.496094.496093h.992188c.277344 0 .496094-.21875.496094-.496093v-3.96875c0-.058594-.007813-.117188-.027344-.167969-.007813-.015625-.011719-.03125-.019532-.046875-.023437-.050781-.058593-.097656-.097656-.136719-.011718-.011718-.023437-.019531-.035156-.03125-.058594-.050781-.132812-.085937-.214844-.101562-.03125-.007813-.066406-.011719-.101562-.011719zm0 0"/></g></svg>

<svg xmlns="http://www.w3.org/2000/svg" xmlns:xlink="http://www.w3.org/1999/xlink" width="24px" height="24px" viewBox="0 0 24 24" version="1.1">
<g id="surface1">
     <defs>
  <style id="current-color-scheme" type="text/css">
   .ColorScheme-Text { color:#eeeeee; } .ColorScheme-Highlight { color:#424242; }
  </style>
 </defs>
<path style="fill:currentColor" class="ColorScheme-Text" d="M 6.449219 22.019531 L 2.976562 17.054688 L 5.457031 17.054688 L 5.457031 2.667969 C 5.457031 2.394531 5.679688 2.171875 5.953125 2.171875 L 6.945312 2.171875 C 7.222656 2.171875 7.441406 2.394531 7.441406 2.667969 L 7.441406 17.054688 L 9.921875 17.054688 Z M 6.449219 22.019531 "/>
     <defs>
  <style id="current-color-scheme" type="text/css">
   .ColorScheme-Text { color:#eeeeee; } .ColorScheme-Highlight { color:#424242; }
  </style>
 </defs>
<path style="fill:currentColor" class="ColorScheme-Text" d="M 17.363281 2.171875 L 13.890625 7.132812 L 16.371094 7.132812 L 16.371094 21.523438 C 16.371094 21.796875 16.59375 22.019531 16.867188 22.019531 L 17.859375 22.019531 C 18.136719 22.019531 18.355469 21.796875 18.355469 21.523438 L 18.355469 7.132812 L 20.839844 7.132812 Z M 17.363281 2.171875 "/>
     <defs>
  <style id="current-color-scheme" type="text/css">
   .ColorScheme-Text { color:#eeeeee; } .ColorScheme-Highlight { color:#424242; }
  </style>
 </defs>
<path style="fill:currentColor" class="ColorScheme-Text" d="M 9.921875 10.109375 C 9.648438 10.109375 9.425781 10.332031 9.425781 10.605469 C 9.425781 10.882812 9.648438 11.101562 9.921875 11.101562 L 10.914062 11.101562 L 10.914062 14.574219 C 10.914062 14.851562 11.136719 15.070312 11.410156 15.070312 L 12.402344 15.070312 C 12.679688 15.070312 12.898438 14.851562 12.898438 14.574219 L 12.898438 10.605469 C 12.898438 10.546875 12.890625 10.488281 12.871094 10.4375 C 12.863281 10.421875 12.859375 10.40625 12.851562 10.390625 C 12.828125 10.339844 12.792969 10.292969 12.753906 10.253906 C 12.742188 10.242188 12.730469 10.234375 12.71875 10.222656 C 12.660156 10.171875 12.585938 10.136719 12.503906 10.121094 C 12.472656 10.113281 12.4375 10.109375 12.402344 10.109375 Z M 9.921875 10.109375 "/>
</g>
</svg>
